src/assets/tiles/type5.svg

<?xml version="1.0" encoding="UTF-8"?>
<!DOCTYPE svg PUBLIC "-//W3C//DTD SVG 1.1//EN" "http://www.w3.org/Graphics/SVG/1.1/DTD/svg11.dtd">
<!-- Creator: CorelDRAW -->
<svg xmlns="http://www.w3.org/2000/svg" xml:space="preserve" width="25mm" height="25mm" style="shape-rendering:geometricPrecision; text-rendering:geometricPrecision; image-rendering:optimizeQuality; fill-rule:evenodd; clip-rule:evenodd"
viewBox="0 0 1.13927 1.13927"
 xmlns:xlink="http://www.w3.org/1999/xlink">
 <defs>
  <style type="text/css">
   <![CDATA[
    .fil2 {fill:maroon}
    .fil0 {fill:gray}
    .fil1 {fill:#c6c6c6}
   ]]>
  </style>
 </defs>
 <g id="Layer_x0020_1">
  <metadata id="CorelCorpID_0Corel-Layer"/>
  <rect class="fil0" width="1.13927" height="1.13927"/>
  <rect class="fil1" x="0.0695474" y="0.0695474" width="1.06972" height="1.06972"/>
  <path class="fil2" d="M0.960865 0.719312l0 0.158801c0,0.0611879 -0.0585904,0.0661414 -0.136649,0.0661414l-0.511432 0c-0.075087,0 -0.0643733,-0.0367301 -0.0643733,-0.0816948l0 -0.0581073 0.45847 0c0.0258159,0 0.0388445,-0.0126322 0.0388445,-0.0280625l0 -0.0902028c0,-0.0154303 -0.0130424,-0.0260665 -0.0388445,-0.0260346l-0.45877 0.000674448 -6.37991e-005 -0.426187 0.710713 -0.00157675 0.000159498 0.037687c0.0028664,0.0860377 -0.0201149,0.106704 -0.086261,0.106936l-0.414033 5.01279e-005 -0.000360009 0.143133 0.367323 -0.00141269c0.0604178,-0.000232411 0.134069,-0.00304413 0.135104,0.0659455 0.000423808,0.0284817 0.000173169,0.107438 0.000173169,0.13391z"/>
 </g>
</svg>

<svg xmlns="http://www.w3.org/2000/svg" xml:space="preserve" width="25mm" height="25mm" style="shape-rendering:geometricPrecision;text-rendering:geometricPrecision;image-rendering:optimizeQuality;fill-rule:evenodd;clip-rule:evenodd" viewBox="0 0 1.139 1.139"><path style="fill:gray" d="M0 0h1.139v1.139H0z"/><path style="fill:#c6c6c6" d="M.07.07h1.07v1.07H.07z"/><path d="M.96.72v.158C.96.94.903.944.825.944H.313C.238.944.248.908.248.863V.804h.459C.733.804.746.792.746.776v-.09C.746.671.733.66.706.66H.249V.236l.71-.002v.038C.963.357.939.377.874.378H.459V.52L.825.519C.886.52.96.516.96.585V.72z" style="fill:maroon"/></svg>
